Newaita-dark/apps/64/com.leinardi.gwe.svg

<svg height="64" viewBox="0 0 64 64" width="64" xmlns="http://www.w3.org/2000/svg" xmlns:xlink="http://www.w3.org/1999/xlink"><linearGradient id="a" gradientUnits="userSpaceOnUse" x1="31.75304" x2="31.75304" y1="56.067872" y2="58.71396000006"><stop offset="0" stop-opacity=".27451"/><stop offset="1" stop-opacity="0"/></linearGradient><linearGradient id="b"><stop offset="0" stop-opacity=".313726"/><stop offset=".222222" stop-opacity=".27451"/><stop offset="1" stop-opacity="0"/></linearGradient><radialGradient id="c" cx="450.908936" cy="189.579361" gradientTransform="matrix(.00000035 -.156265 -.281277 -.0000002 104.261296 127.190665)" gradientUnits="userSpaceOnUse" r="21.166656" xlink:href="#b"/><radialGradient id="d" cx="450.908936" cy="189.579361" gradientTransform="matrix(-.00000035 .156265 .281277 .0000002 -40.755227 -15.054958)" gradientUnits="userSpaceOnUse" r="21.166656" xlink:href="#b"/><radialGradient id="e" cx="450.908936" cy="189.579361" gradientTransform="matrix(-.00000035 -.156265 .281277 -.0000002 -40.755227 127.190665)" gradientUnits="userSpaceOnUse" r="21.166656" xlink:href="#b"/><radialGradient id="f" cx="450.908936" cy="189.579361" gradientTransform="matrix(.00000035 .156265 -.281277 .0000002 104.261293 -15.054959)" gradientUnits="userSpaceOnUse" r="21.166656" xlink:href="#b"/><linearGradient id="g" gradientUnits="userSpaceOnUse" x1="21.16869799994" x2="21.16869799994" y1="56.067868" y2="5.79221000013"><stop offset="0" stop-color="#9ccc65"/><stop offset="1" stop-color="#aed581"/></linearGradient><linearGradient id="h" gradientUnits="userSpaceOnUse" x1="31.753056" x2="31.75305801764" y1="56.06789790428" y2="5.79222438278"><stop offset="0" stop-color="#424242"/><stop offset="1" stop-color="#616161"/></linearGradient><linearGradient id="i" gradientUnits="userSpaceOnUse" x1="21.16869799994" x2="21.16869799994" y1="32.253082" y2="5.79221000013"><stop offset="0" stop-opacity=".156863"/><stop offset="1" stop-color="#aed581" stop-opacity=".004405"/></linearGradient><path d="m11.90625 55.871094h39.691406v2.941406h-39.691406zm0 0" fill="url(#a)"/><path d="m51.597656 56.066406h5.292969v-2.644531h-5.292969zm0 0" fill="url(#c)"/><path d="m11.90625 56.066406h-5.292969v2.648438h5.292969zm0 0" fill="url(#d)"/><path d="m11.90625 56.066406h-5.292969v-2.644531h5.292969zm0 0" fill="url(#e)"/><path d="m51.597656 56.066406h5.292969v2.648438h-5.292969zm0 0" fill="url(#f)"/><path d="m9.261719 5.792969h44.984375c1.460937 0 2.644531 1.183593 2.644531 2.644531v44.984375c0 1.460937-1.183594 2.644531-2.644531 2.644531h-44.984375c-1.460938 0-2.648438-1.183594-2.648438-2.644531v-44.984375c0-1.460938 1.1875-2.644531 2.648438-2.644531zm0 0" fill="url(#g)"/><path d="m56.890625 16.417969c-3.101563.136719-6.183594.578125-9.199219 1.320312-15.417968 3.769531-22.851562 12.726563-22.851562 12.726563s4.6875 11.433594 13.386718 18.042968c3 2.273438 6.140626 4.359376 9.402344 6.238282h-8.929687c-.90625-.542969-1.792969-1.109375-2.632813-1.695313-5.546875-3.878906-11.8125-11.148437-11.8125-11.148437-1.886718 1.414062-4.078125 1.386718-5.933594 2.246094-1.859374.855468-3.082031 1.5-3.082031 1.5s1.695313 2.304687 8.765625 7.460937c.804688.589844 1.609375 1.136719 2.398438 1.640625h-6.835938l-.136718-.03125h-8.460938l-4.007812.015625c.457031.796875 1.3125 1.332031 2.300781 1.332031h44.984375c1.234375 0 2.265625-.835937 2.5625-1.980468l-2.648438.015624c-1.945312-1.050781-8.074218-4.660156-12.980468-10.886718-5.917969-7.507813-5.917969-10.09375-5.917969-10.09375s6.136719-6.175782 12.386719-8.726563c3.097656-1.265625 6.546874-2.257812 9.242187-2.933593zm0 9.117187c-9.246094 4.25-13.050781 10.394532-13.050781 10.394532s1.832031 5.898437 8.207031 12.320312c0 0-1.578125-7.875-1.746094-10.894531 1.839844-2.394531 4.066407-4.457031 6.589844-6.105469zm0 0" fill="url(#h)"/><path d="m9.261719 5.921875c-1.464844 0-2.648438 1.179687-2.648438 2.648437v.328126c0-1.464844 1.183594-2.648438 2.648438-2.644532h44.984375c1.464844-.003906 2.644531 1.179688 2.644531 2.644532v-.328126c0-1.46875-1.179687-2.648437-2.644531-2.648437zm0 0" fill="#fff" fill-opacity=".392157"/><path d="m9.261719 55.902344c-1.464844 0-2.648438-1.179688-2.648438-2.644532v-.332031c0 1.464844 1.183594 2.644531 2.648438 2.644531h44.984375c1.464844 0 2.644531-1.179687 2.644531-2.644531v.332031c0 1.464844-1.179687 2.644532-2.644531 2.644532zm0 0" fill-opacity=".196078"/><path d="m74.086675-168.660675h359.840637c11.686384 0 21.15423 9.467846 21.15423 21.15423v359.840637c0 11.686384-9.467846 21.154229-21.15423 21.154229h-359.840637c-11.686384 0-21.185477-9.467845-21.185477-21.154229v-359.840637c0-11.686384 9.499093-21.15423 21.185477-21.15423zm0 0" fill="none" stroke="#212121" stroke-linecap="round" stroke-width="3" transform="matrix(.125012 0 0 .125012 0 26.877566)"/><path d="m56.890625 16.585938c-3.101563.132812-6.183594.574218-9.199219 1.316406-15.417968 3.773437-22.851562 12.730468-22.851562 12.730468s.03125.070313.082031.191407c.824219-.945313 8.257813-9.082031 22.769531-12.632813 3.015625-.742187 6.097656-1.183594 9.199219-1.320312zm0 9.117187c-9.246094 4.246094-13.050781 10.390625-13.050781 10.390625s.023437.074219.066406.191406c.523438-.792968 4.414062-6.359375 12.984375-10.296875zm-21.597656 7.839844c-.007813.007812-.03125.03125-.03125.03125s0 2.585937 5.917969 10.09375c4.90625 6.226562 11.035156 9.835937 12.980468 10.886719l2.554688-.011719c.035156-.09375.066406-.191407.09375-.289063l-2.648438.011719c-1.945312-1.046875-8.074218-4.65625-12.980468-10.886719-4.875-6.183594-5.734376-9.027344-5.886719-9.835937zm15.023437 4.242187c-.003906.007813-.011718.015625-.015625.023438.144531 2.636718 1.367188 8.964844 1.675781 10.535156.023438.023438.046876.046875.070313.074219 0 0-1.492187-7.441407-1.730469-10.632813zm-26.0625 4.28125c-1.886718 1.414063-4.078125 1.386719-5.933594 2.246094-1.859374.859375-3.082031 1.5-3.082031 1.5s.054688.074219.167969.203125c.355469-.183594 1.40625-.71875 2.914062-1.414063 1.855469-.859374 4.046876-.832031 5.933594-2.246093 0 0 6.265625 7.269531 11.8125 11.148437.839844.585938 1.726563 1.152344 2.632813 1.695313h8.929687c-.164062-.097657-.332031-.191407-.496094-.289063h-8.433593c-.90625-.542968-1.792969-1.109375-2.632813-1.695312-5.546875-3.878906-11.8125-11.148438-11.8125-11.148438zm-13.285156 12.820313-4.007812.015625c.058593.097656.121093.195312.191406.285156l3.816406-.011719h8.460938l.136718.027344h6.835938c-.148438-.09375-.296875-.191406-.445313-.289063h-6.390625l-.136718-.027343zm0 0" fill="#fff" fill-opacity=".313726"/><path d="m1719.99332 496.369948c-93.770578 4.133464-186.950661 17.478647-278.123062 39.91745-466.136613 113.965501-690.878942 384.766426-690.878942 384.766426s141.718757 345.67567 404.725151 545.499118c90.700005 68.733597 185.651572 131.798444 284.264208 188.604046h-269.974233c-27.39896-16.415756-54.207425-33.540106-79.598702-51.254951-167.70053-117.272271-357.131269-337.054444-357.131269-337.054444-57.0418 42.751825-123.295319 41.925132-179.392327 67.906904-56.215107 25.863673-93.180083 45.350003-93.180083 45.350003s51.25495 69.678389 265.014076 225.569022c24.328387 17.832944 48.656773 34.366799 72.512764 49.601565h-206.673188l-4.133463-.944792h-255.802358l-121.169537.472396c13.817579 24.092189 39.681252 40.271747 69.56029 40.271747h1360.027676c37.319272 0 68.497399-25.273178 77.47292-59.876175l-80.071098.472396c-58.813284-31.768622-244.110559-140.892065-392.442859-329.141814-178.919931-226.98621-178.919931-305.167725-178.919931-305.167725s185.533473-186.714463 374.491816-263.833086c93.652479-38.264065 197.933865-68.261202 279.422151-88.692323zm0 275.642983c-279.540249 128.491674-394.568641 314.261345-394.568641 314.261345s55.388414 178.329436 248.125925 372.484134c0 0-47.711982-238.087513-52.790238-329.378012 55.624613-72.394665 122.941022-134.750919 199.232954-184.588682zm0 0" fill="none" stroke="#212121" stroke-width="11.338583" transform="scale(.0330761)"/><path d="m56.890625 21.652344c-2.695313.675781-6.144531 1.667968-9.242187 2.933594-6.25 2.550781-12.386719 8.726562-12.386719 8.726562s0 .199219.125.640625c.859375-.84375 6.507812-6.257813 12.261719-8.605469 3.097656-1.265625 6.546874-2.253906 9.242187-2.933594zm-31.828125 9.515625c-.144531.160156-.222656.25-.222656.25s4.6875 11.4375 13.386718 18.046875c2.597657 1.96875 5.304688 3.796875 8.105469 5.472656h1.296875c-3.261718-1.878906-6.402344-3.964844-9.402344-6.238281-7.605468-5.777344-12.144531-15.242188-13.164062-17.53125zm31.828125.273437c-2.523437 1.648438-4.75 3.710938-6.589844 6.105469.011719.207031.03125.441406.054688.691406 1.828125-2.363281 4.039062-4.402343 6.535156-6.035156zm-12.875 5.175782c-.117187.171874-.175781.265624-.175781.265624s1.832031 5.898438 8.207031 12.324219c0 0-.074219-.394531-.183594-.953125-5.148437-5.25-7.265625-10.109375-7.847656-11.636718zm-28.320313 9.75c-.292968.148437-.457031.234374-.457031.234374s1.695313 2.304688 8.765625 7.460938c.414063.304688.828125.597656 1.242188.878906h1.15625c-.789063-.503906-1.59375-1.050781-2.398438-1.640625-5.140625-3.75-7.4375-5.988281-8.308594-6.933593zm0 0" fill-opacity=".235294"/><path d="m9.261719 5.792969c-1.464844 0-2.648438 1.179687-2.648438 2.644531v22.492188h50.277344v-22.492188c0-1.464844-1.179687-2.644531-2.644531-2.644531zm0 0" fill="url(#i)"/></svg>

<?xml version="1.0" encoding="UTF-8"?>
<svg xmlns="http://www.w3.org/2000/svg" xmlns:xlink="http://www.w3.org/1999/xlink" width="64px" height="64px" viewBox="0 0 64 64" version="1.1">
<defs>
<linearGradient id="linear0" gradientUnits="userSpaceOnUse" x1="254" y1="233.5" x2="254" y2="254.666672" gradientTransform="matrix(0.125012,0,0,0.125012,-0.00000763012,26.87757)">
<stop offset="0" style="stop-color:rgb(0%,0%,0%);stop-opacity:0.27451;"/>
<stop offset="1" style="stop-color:rgb(0%,0%,0%);stop-opacity:0;"/>
</linearGradient>
<radialGradient id="radial0" gradientUnits="userSpaceOnUse" cx="450.908936" cy="189.579361" fx="450.908936" fy="189.579361" r="21.166656" gradientTransform="matrix(0.000000348341,-0.156265,-0.281277,-0.000000203077,104.261296,127.190665)">
<stop offset="0" style="stop-color:rgb(0%,0%,0%);stop-opacity:0.313726;"/>
<stop offset="0.222222" style="stop-color:rgb(0%,0%,0%);stop-opacity:0.27451;"/>
<stop offset="1" style="stop-color:rgb(0%,0%,0%);stop-opacity:0;"/>
</radialGradient>
<radialGradient id="radial1" gradientUnits="userSpaceOnUse" cx="450.908936" cy="189.579361" fx="450.908936" fy="189.579361" r="21.166656" gradientTransform="matrix(-0.000000348341,0.156265,0.281277,0.000000203077,-40.755227,-15.054958)">
<stop offset="0" style="stop-color:rgb(0%,0%,0%);stop-opacity:0.313726;"/>
<stop offset="0.222222" style="stop-color:rgb(0%,0%,0%);stop-opacity:0.27451;"/>
<stop offset="1" style="stop-color:rgb(0%,0%,0%);stop-opacity:0;"/>
</radialGradient>
<radialGradient id="radial2" gradientUnits="userSpaceOnUse" cx="450.908936" cy="189.579361" fx="450.908936" fy="189.579361" r="21.166656" gradientTransform="matrix(-0.000000348341,-0.156265,0.281277,-0.000000203077,-40.755227,127.190665)">
<stop offset="0" style="stop-color:rgb(0%,0%,0%);stop-opacity:0.313726;"/>
<stop offset="0.222222" style="stop-color:rgb(0%,0%,0%);stop-opacity:0.27451;"/>
<stop offset="1" style="stop-color:rgb(0%,0%,0%);stop-opacity:0;"/>
</radialGradient>
<radialGradient id="radial3" gradientUnits="userSpaceOnUse" cx="450.908936" cy="189.579361" fx="450.908936" fy="189.579361" r="21.166656" gradientTransform="matrix(0.000000348341,0.156265,-0.281277,0.000000203077,104.261293,-15.054959)">
<stop offset="0" style="stop-color:rgb(0%,0%,0%);stop-opacity:0.313726;"/>
<stop offset="0.222222" style="stop-color:rgb(0%,0%,0%);stop-opacity:0.27451;"/>
<stop offset="1" style="stop-color:rgb(0%,0%,0%);stop-opacity:0;"/>
</radialGradient>
<linearGradient id="linear1" gradientUnits="userSpaceOnUse" x1="169.333328" y1="233.5" x2="169.333328" y2="-168.666656" gradientTransform="matrix(0.125012,0,0,0.125012,0,26.877566)">
<stop offset="0" style="stop-color:rgb(61.176473%,80.000001%,39.607844%);stop-opacity:1;"/>
<stop offset="1" style="stop-color:rgb(68.235296%,83.529413%,50.588238%);stop-opacity:1;"/>
</linearGradient>
<linearGradient id="linear2" gradientUnits="userSpaceOnUse" x1="960" y1="1695.118164" x2="960.000061" y2="175.118118" gradientTransform="matrix(0.0330761,0,0,0.0330761,0,0)">
<stop offset="0" style="stop-color:rgb(25.882354%,25.882354%,25.882354%);stop-opacity:1;"/>
<stop offset="1" style="stop-color:rgb(38.039216%,38.039216%,38.039216%);stop-opacity:1;"/>
</linearGradient>
<linearGradient id="linear3" gradientUnits="userSpaceOnUse" x1="169.333328" y1="43" x2="169.333328" y2="-168.666656" gradientTransform="matrix(0.125012,0,0,0.125012,0,26.877566)">
<stop offset="0" style="stop-color:rgb(0%,0%,0%);stop-opacity:0.156863;"/>
<stop offset="1" style="stop-color:rgb(68.235296%,83.529413%,50.588238%);stop-opacity:0.00440529;"/>
</linearGradient>
</defs>
<g id="surface1">
<path style=" stroke:none;fill-rule:nonzero;fill:url(#linear0);" d="M 11.90625 55.871094 L 51.597656 55.871094 L 51.597656 58.8125 L 11.90625 58.8125 Z M 11.90625 55.871094 "/>
<path style=" stroke:none;fill-rule:nonzero;fill:url(#radial0);" d="M 51.597656 56.066406 L 56.890625 56.066406 L 56.890625 53.421875 L 51.597656 53.421875 Z M 51.597656 56.066406 "/>
<path style=" stroke:none;fill-rule:nonzero;fill:url(#radial1);" d="M 11.90625 56.066406 L 6.613281 56.066406 L 6.613281 58.714844 L 11.90625 58.714844 Z M 11.90625 56.066406 "/>
<path style=" stroke:none;fill-rule:nonzero;fill:url(#radial2);" d="M 11.90625 56.066406 L 6.613281 56.066406 L 6.613281 53.421875 L 11.90625 53.421875 Z M 11.90625 56.066406 "/>
<path style=" stroke:none;fill-rule:nonzero;fill:url(#radial3);" d="M 51.597656 56.066406 L 56.890625 56.066406 L 56.890625 58.714844 L 51.597656 58.714844 Z M 51.597656 56.066406 "/>
<path style=" stroke:none;fill-rule:nonzero;fill:url(#linear1);" d="M 9.261719 5.792969 L 54.246094 5.792969 C 55.707031 5.792969 56.890625 6.976562 56.890625 8.4375 L 56.890625 53.421875 C 56.890625 54.882812 55.707031 56.066406 54.246094 56.066406 L 9.261719 56.066406 C 7.800781 56.066406 6.613281 54.882812 6.613281 53.421875 L 6.613281 8.4375 C 6.613281 6.976562 7.800781 5.792969 9.261719 5.792969 Z M 9.261719 5.792969 "/>
<path style=" stroke:none;fill-rule:nonzero;fill:url(#linear2);" d="M 56.890625 16.417969 C 53.789062 16.554688 50.707031 16.996094 47.691406 17.738281 C 32.273438 21.507812 24.839844 30.464844 24.839844 30.464844 C 24.839844 30.464844 29.527344 41.898438 38.226562 48.507812 C 41.226562 50.78125 44.367188 52.867188 47.628906 54.746094 L 38.699219 54.746094 C 37.792969 54.203125 36.90625 53.636719 36.066406 53.050781 C 30.519531 49.171875 24.253906 41.902344 24.253906 41.902344 C 22.367188 43.316406 20.175781 43.289062 18.320312 44.148438 C 16.460938 45.003906 15.238281 45.648438 15.238281 45.648438 C 15.238281 45.648438 16.933594 47.953125 24.003906 53.109375 C 24.808594 53.699219 25.613281 54.246094 26.402344 54.75 L 19.566406 54.75 L 19.429688 54.71875 L 10.96875 54.71875 L 6.960938 54.734375 C 7.417969 55.53125 8.273438 56.066406 9.261719 56.066406 L 54.246094 56.066406 C 55.480469 56.066406 56.511719 55.230469 56.808594 54.085938 L 54.160156 54.101562 C 52.214844 53.050781 46.085938 49.441406 41.179688 43.214844 C 35.261719 35.707031 35.261719 33.121094 35.261719 33.121094 C 35.261719 33.121094 41.398438 26.945312 47.648438 24.394531 C 50.746094 23.128906 54.195312 22.136719 56.890625 21.460938 Z M 56.890625 25.535156 C 47.644531 29.785156 43.839844 35.929688 43.839844 35.929688 C 43.839844 35.929688 45.671875 41.828125 52.046875 48.25 C 52.046875 48.25 50.46875 40.375 50.300781 37.355469 C 52.140625 34.960938 54.367188 32.898438 56.890625 31.25 Z M 56.890625 25.535156 "/>
<path style=" stroke:none;fill-rule:nonzero;fill:rgb(100%,100%,100%);fill-opacity:0.392157;" d="M 9.261719 5.921875 C 7.796875 5.921875 6.613281 7.101562 6.613281 8.570312 L 6.613281 8.898438 C 6.613281 7.433594 7.796875 6.25 9.261719 6.253906 L 54.246094 6.253906 C 55.710938 6.25 56.890625 7.433594 56.890625 8.898438 L 56.890625 8.570312 C 56.890625 7.101562 55.710938 5.921875 54.246094 5.921875 Z M 9.261719 5.921875 "/>
<path style=" stroke:none;fill-rule:nonzero;fill:rgb(0%,0%,0%);fill-opacity:0.196078;" d="M 9.261719 55.902344 C 7.796875 55.902344 6.613281 54.722656 6.613281 53.257812 L 6.613281 52.925781 C 6.613281 54.390625 7.796875 55.570312 9.261719 55.570312 L 54.246094 55.570312 C 55.710938 55.570312 56.890625 54.390625 56.890625 52.925781 L 56.890625 53.257812 C 56.890625 54.722656 55.710938 55.902344 54.246094 55.902344 Z M 9.261719 55.902344 "/>
<path style="fill:none;stroke-width:3;stroke-linecap:round;stroke-linejoin:miter;stroke:rgb(12.941177%,12.941177%,12.941177%);stroke-opacity:1;stroke-miterlimit:4;" d="M 74.086675 -168.660675 L 433.927312 -168.660675 C 445.613696 -168.660675 455.081542 -159.192829 455.081542 -147.506445 L 455.081542 212.334192 C 455.081542 224.020576 445.613696 233.488421 433.927312 233.488421 L 74.086675 233.488421 C 62.400291 233.488421 52.901198 224.020576 52.901198 212.334192 L 52.901198 -147.506445 C 52.901198 -159.192829 62.400291 -168.660675 74.086675 -168.660675 Z M 74.086675 -168.660675 " transform="matrix(0.125012,0,0,0.125012,0,26.877566)"/>
<path style=" stroke:none;fill-rule:nonzero;fill:rgb(100%,100%,100%);fill-opacity:0.313726;" d="M 56.890625 16.585938 C 53.789062 16.71875 50.707031 17.160156 47.691406 17.902344 C 32.273438 21.675781 24.839844 30.632812 24.839844 30.632812 C 24.839844 30.632812 24.871094 30.703125 24.921875 30.824219 C 25.746094 29.878906 33.179688 21.742188 47.691406 18.191406 C 50.707031 17.449219 53.789062 17.007812 56.890625 16.871094 Z M 56.890625 25.703125 C 47.644531 29.949219 43.839844 36.09375 43.839844 36.09375 C 43.839844 36.09375 43.863281 36.167969 43.90625 36.285156 C 44.429688 35.492188 48.320312 29.925781 56.890625 25.988281 Z M 35.292969 33.542969 C 35.285156 33.550781 35.261719 33.574219 35.261719 33.574219 C 35.261719 33.574219 35.261719 36.160156 41.179688 43.667969 C 46.085938 49.894531 52.214844 53.503906 54.160156 54.554688 L 56.714844 54.542969 C 56.75 54.449219 56.78125 54.351562 56.808594 54.253906 L 54.160156 54.265625 C 52.214844 53.21875 46.085938 49.609375 41.179688 43.378906 C 36.304688 37.195312 35.445312 34.351562 35.292969 33.542969 Z M 50.316406 37.785156 C 50.3125 37.792969 50.304688 37.800781 50.300781 37.808594 C 50.445312 40.445312 51.667969 46.773438 51.976562 48.34375 C 52 48.367188 52.023438 48.390625 52.046875 48.417969 C 52.046875 48.417969 50.554688 40.976562 50.316406 37.785156 Z M 24.253906 42.066406 C 22.367188 43.480469 20.175781 43.453125 18.320312 44.3125 C 16.460938 45.171875 15.238281 45.8125 15.238281 45.8125 C 15.238281 45.8125 15.292969 45.886719 15.40625 46.015625 C 15.761719 45.832031 16.8125 45.296875 18.320312 44.601562 C 20.175781 43.742188 22.367188 43.769531 24.253906 42.355469 C 24.253906 42.355469 30.519531 49.625 36.066406 53.503906 C 36.90625 54.089844 37.792969 54.65625 38.699219 55.199219 L 47.628906 55.199219 C 47.464844 55.101562 47.296875 55.007812 47.132812 54.910156 L 38.699219 54.910156 C 37.792969 54.367188 36.90625 53.800781 36.066406 53.214844 C 30.519531 49.335938 24.253906 42.066406 24.253906 42.066406 Z M 10.96875 54.886719 L 6.960938 54.902344 C 7.019531 55 7.082031 55.097656 7.152344 55.1875 L 10.96875 55.175781 L 19.429688 55.175781 L 19.566406 55.203125 L 26.402344 55.203125 C 26.253906 55.109375 26.105469 55.011719 25.957031 54.914062 L 19.566406 54.914062 L 19.429688 54.886719 Z M 10.96875 54.886719 "/>
<path style="fill:none;stroke-width:11.338583;stroke-linecap:butt;stroke-linejoin:miter;stroke:rgb(12.941177%,12.941177%,12.941177%);stroke-opacity:1;stroke-miterlimit:4;" d="M 1719.99332 496.369948 C 1626.222742 500.503412 1533.042659 513.848595 1441.870258 536.287398 C 975.733645 650.252899 750.991316 921.053824 750.991316 921.053824 C 750.991316 921.053824 892.710073 1266.729494 1155.716467 1466.552942 C 1246.416472 1535.286539 1341.368039 1598.351386 1439.980675 1655.156988 L 1170.006442 1655.156988 C 1142.607482 1638.741232 1115.799017 1621.616882 1090.40774 1603.902037 C 922.70721 1486.629766 733.276471 1266.847593 733.276471 1266.847593 C 676.234671 1309.599418 609.981152 1308.772725 553.884144 1334.754497 C 497.669037 1360.61817 460.704061 1380.1045 460.704061 1380.1045 C 460.704061 1380.1045 511.959011 1449.782889 725.718137 1605.673522 C 750.046524 1623.506466 774.37491 1640.040321 798.230901 1655.275087 L 591.557713 1655.275087 L 587.42425 1654.330295 L 331.621892 1654.330295 L 210.452355 1654.802691 C 224.269934 1678.89488 250.133607 1695.074438 280.012645 1695.074438 L 1640.040321 1695.074438 C 1677.359593 1695.074438 1708.53772 1669.80126 1717.513241 1635.198263 L 1637.442143 1635.670659 C 1578.628859 1603.902037 1393.331584 1494.778594 1244.999284 1306.528845 C 1066.079353 1079.542635 1066.079353 1001.36112 1066.079353 1001.36112 C 1066.079353 1001.36112 1251.612826 814.646657 1440.571169 737.528034 C 1534.223648 699.263969 1638.505034 669.266832 1719.99332 648.835711 Z M 1719.99332 772.012931 C 1440.453071 900.504605 1325.424679 1086.274276 1325.424679 1086.274276 C 1325.424679 1086.274276 1380.813093 1264.603712 1573.550604 1458.75841 C 1573.550604 1458.75841 1525.838622 1220.670897 1520.760366 1129.380398 C 1576.384979 1056.985733 1643.701388 994.629479 1719.99332 944.791716 Z M 1719.99332 772.012931 " transform="matrix(0.0330761,0,0,0.0330761,0,0)"/>
<path style=" stroke:none;fill-rule:nonzero;fill:rgb(0%,0%,0%);fill-opacity:0.235294;" d="M 56.890625 21.652344 C 54.195312 22.328125 50.746094 23.320312 47.648438 24.585938 C 41.398438 27.136719 35.261719 33.3125 35.261719 33.3125 C 35.261719 33.3125 35.261719 33.511719 35.386719 33.953125 C 36.246094 33.109375 41.894531 27.695312 47.648438 25.347656 C 50.746094 24.082031 54.195312 23.09375 56.890625 22.414062 Z M 25.0625 31.167969 C 24.917969 31.328125 24.839844 31.417969 24.839844 31.417969 C 24.839844 31.417969 29.527344 42.855469 38.226562 49.464844 C 40.824219 51.433594 43.53125 53.261719 46.332031 54.9375 L 47.628906 54.9375 C 44.367188 53.058594 41.226562 50.972656 38.226562 48.699219 C 30.621094 42.921875 26.082031 33.457031 25.0625 31.167969 Z M 56.890625 31.441406 C 54.367188 33.089844 52.140625 35.152344 50.300781 37.546875 C 50.3125 37.753906 50.332031 37.988281 50.355469 38.238281 C 52.183594 35.875 54.394531 33.835938 56.890625 32.203125 Z M 44.015625 36.617188 C 43.898438 36.789062 43.839844 36.882812 43.839844 36.882812 C 43.839844 36.882812 45.671875 42.78125 52.046875 49.207031 C 52.046875 49.207031 51.972656 48.8125 51.863281 48.253906 C 46.714844 43.003906 44.597656 38.144531 44.015625 36.617188 Z M 15.695312 46.367188 C 15.402344 46.515625 15.238281 46.601562 15.238281 46.601562 C 15.238281 46.601562 16.933594 48.90625 24.003906 54.0625 C 24.417969 54.367188 24.832031 54.660156 25.246094 54.941406 L 26.402344 54.941406 C 25.613281 54.4375 24.808594 53.890625 24.003906 53.300781 C 18.863281 49.550781 16.566406 47.3125 15.695312 46.367188 Z M 15.695312 46.367188 "/>
<path style=" stroke:none;fill-rule:nonzero;fill:url(#linear3);" d="M 9.261719 5.792969 C 7.796875 5.792969 6.613281 6.972656 6.613281 8.4375 L 6.613281 30.929688 L 56.890625 30.929688 L 56.890625 8.4375 C 56.890625 6.972656 55.710938 5.792969 54.246094 5.792969 Z M 9.261719 5.792969 "/>
</g>
</svg>
